Obsidian/actions/16s/kdenlive-insert-edit.svg

<svg height="16" viewBox="0 0 16 16" width="16" xmlns="http://www.w3.org/2000/svg"><path d="m0 3v10h4v-10zm12 0v10h4v-10zm-7 2v6h6v-6z" fill="#bebebe"/></svg>

<svg xmlns="http://www.w3.org/2000/svg" width="16" height="16" viewBox="0 0 16 16">
 <defs>
  <style id="current-color-scheme" type="text/css">
   .ColorScheme-Text { color:#bebebe; } .ColorScheme-Highlight { color:#4285f4; }
  </style>
 </defs>
 <path style="fill:currentColor" class="ColorScheme-Text" d="M 0 3 L 0 13 L 4 13 L 4 3 L 0 3 z M 12 3 L 12 13 L 16 13 L 16 3 L 12 3 z M 5 5 L 5 11 L 11 11 L 11 5 L 5 5 z"/>
</svg>
